X:44
T:Musical Priest, The
R:reel
D:Matt Molloy: Stony Steps.
Z:id:hn-reel-44
M:C|
K:Bm
FBBA BcdB|cBAf ecBA|FBBA BcdB|1 cBAc ~B3A:|2 cBAc ~B3c||
|:d2dc dfed|(3cBA eA fAeA|dcBc defb|afec ~B3c:|
|:dB~B2 bafb|afec ABce|dB~B2 bafb|1 afec ~B3c:|2 afec ~B3A||
P:Variations:
FBBA ~B3d|cBAc ecBA|FBBA ~B3d|cBAc ~B3A||
FBBF GBdB|cBAc ecBA|FBBF GBdB|cBAc ~B3c||
d2dc dfed|(3cBA eA fAeA|d2dc def^g|afec dBBc||
d2dc dfed|(3cBA eA fAeA|d2dc dfaf|ecAB dBBc||
bB~B2 bB~B2|cBAc ecBA|bB~B2 bBBb|c'bac' ~b3z||
bB~B2 bB~B2|cBAc eABc|d2dc defg|afec dBBA||
P:More variations:
FBBA BABd|cBAf ecBA|FBBA BABd|1 cBAF ~B3A:|2 cBAF ~B3c||
|:d2dc dfed|(3cBA eA fAec|dcBc defb|afec ~B3c:|
|:dB~B2 bafb|afec Acec|1 dB~B2 bafb|afec ~B3c:|2 dcBc defb|afec ~B3A||
<end>
<start>
